svgs/sharp-light/cart-flatbed-empty.svg

<svg xmlns="http://www.w3.org/2000/svg" viewBox="0 0 640 512"><!--! Font Awesome Pro 6.6.0 by @fontawesome - https://fontawesome.com License - https://fontawesome.com/license (Commercial License) Copyright 2024 Fonticons, Inc. --><path d="M0 0L16 0l96 0 16 0 0 16 0 368 96 0 288 0 112 0 16 0 0 32-16 0-56.6 0c5.4 9.4 8.6 20.3 8.6 32c0 35.3-28.7 64-64 64s-64-28.7-64-64c0-11.7 3.1-22.6 8.6-32l-177.1 0c5.4 9.4 8.6 20.3 8.6 32c0 35.3-28.7 64-64 64s-64-28.7-64-64c0-11.7 3.1-22.6 8.6-32L112 416l-16 0 0-16L96 32 16 32 0 32 0 0zM512 416a32 32 0 1 0 0 64 32 32 0 1 0 0-64zM192 448a32 32 0 1 0 64 0 32 32 0 1 0 -64 0z"/></svg>

<svg xmlns="http://www.w3.org/2000/svg" viewBox="0 0 640 512"><!--! Font Awesome Pro 6.5.2 by @fontawesome - https://fontawesome.com License - https://fontawesome.com/license (Commercial License) Copyright 2024 Fonticons, Inc. --><path d="M0 0H16h96 16V16 384h96H512 624h16v32H624 567.4c5.4 9.4 8.6 20.3 8.6 32c0 35.3-28.7 64-64 64s-64-28.7-64-64c0-11.7 3.1-22.6 8.6-32H279.4c5.4 9.4 8.6 20.3 8.6 32c0 35.3-28.7 64-64 64s-64-28.7-64-64c0-11.7 3.1-22.6 8.6-32H112 96V400 32H16 0V0zM512 416a32 32 0 1 0 0 64 32 32 0 1 0 0-64zM192 448a32 32 0 1 0 64 0 32 32 0 1 0 -64 0z"/></svg>
